X:2048
T:Trooid shiu ooilley gethan gys yn vie 
C:John Radcliffe, The Howe
O:Isle of Man
S:Traditional
B:Kiaull Vannin #48 (Revised) 
Z:Clague Collection
L:1/4
M:3/4 
Q:120 
K:G 
G|A B c|d2 e|d d/c/ B|{B}A2 G|G A B|c d c|B A2-|A2 B/A/| 
A G=F|E2=F/E/|D D/E/ G|G2 d|d d d|A F E|E D2 -|D2|| 
